X: 1
T: Am Yisrael Chai #2 [Am]
C: Shlomo Carlebach
M: C
L: 1/8
K: Am
|: "Am"EEEE EEEE | "G"DEDB, G,4 | DDDD DDDDD | "Am"EDCB, A,4 :|
|: "Am"AA"Em"GE "Am"A4 | "Am"AA"Em"GE "Am"A4 | "Am"ccBA ccBA | "G"DDB,G "Am"A4 :|
